X: 12
T:Buff Coat Hath No Fellow,The. HA12
T:She Wants A Fellow,aka. HA12
M:6/4
L:1/4
Q:140
S:Henry Atkinson MS,Hartburn,Northumberland,1694/5 transcribed John Stokoe 1883
Z:vmp.Cherri Graebe
K:D Major
B/4c/4|d2AF>ED|Eedc2B/c/|d2AF2E|F D2-D2:||:B/c/|dcdBcd|edec>BA|!
dcdede|f3a3|f>efBcd|edec>Bc|d2AF2E|FD2-D2:||
